X:266
T:Foxhunter\'is Jig
R:Slip Jig
M:9/8
L:1/8
K:D
|F3 F2D G2E | F3 F2D E2D | F3 F2D G2B | A2D DEF E2D :|
|: B2B BAG FGA | B2E E2F G2B | ABc dcB ABc | d2 D DEF E2D :|
|: f3 f2 d g2e | f3 f2 d e2d| f3 f2d g2b | a2d def e2d :|
|: gfe d=cB AGA | B2E E2F G2B | ABc dcB ABc | d2D DEF E2D :|
